src/images/mediaLogos/lightTheme/Architizer.svg

<svg width="84" height="17" viewBox="0 0 84 17" fill="none" xmlns="http://www.w3.org/2000/svg">
<path d="M11.4552 16.1579L7.0028 2.90425L3.11414 14.2136H8.60198V16.0428H0.375977L5.97886 0.51123H8.25683L13.7447 16.0428H11.4552V16.1579Z" fill="#3A3A3A"/>
<path d="M20.7043 6.90803C20.4742 6.90803 20.2441 6.79299 20.014 6.79299C19.5617 6.81601 19.1187 6.92993 18.7115 7.12794C18.3042 7.32594 17.941 7.60398 17.6436 7.94545C17.3461 8.28692 17.1205 8.68482 16.9803 9.11539C16.84 9.54597 16.7879 10.0004 16.8271 10.4515V16.204H14.8828V5.30885H16.8271V7.36823C17.0683 6.68566 17.5181 6.09621 18.1127 5.68328C18.7073 5.27035 19.4167 5.05484 20.1406 5.06725C20.3399 5.03624 20.5437 5.07701 20.7158 5.1823L20.7043 6.90803Z" fill="#3A3A3A"/>
<path d="M25.8458 16.3885C22.6475 16.3885 20.7031 14.2141 20.7031 10.636C20.7031 7.05801 22.8775 4.88359 25.8458 4.88359C26.828 4.82923 27.8022 5.08712 28.6289 5.62031C29.4555 6.15351 30.0922 6.93465 30.4478 7.85185L28.8486 8.65719C28.6687 8.01479 28.2783 7.45135 27.7402 7.0571C27.202 6.66286 26.5471 6.46062 25.8803 6.48277C23.936 6.48277 22.682 7.9669 22.682 10.59C22.682 13.2131 24.051 14.6973 25.8803 14.6973C26.5459 14.7255 27.2049 14.5559 27.7742 14.2098C28.3434 13.8637 28.7974 13.3568 29.0787 12.7529L30.5628 13.5583C30.1551 14.4518 29.486 15.2006 28.6438 15.7059C27.8017 16.2112 26.8261 16.4492 25.8458 16.3885V16.3885Z" fill="#3A3A3A"/>
<path d="M40.8134 16.1591H38.8691V9.87738C38.8691 7.47285 37.9602 6.79407 36.361 6.79407C35.9582 6.80005 35.561 6.8896 35.1945 7.05704C34.8281 7.22449 34.5004 7.46618 34.2322 7.76682C33.964 8.06746 33.7611 8.4205 33.6364 8.8036C33.5118 9.1867 33.4679 9.59152 33.5078 9.99243V16.2741H31.5635V0.627441H33.5078V6.90911C33.8697 6.30464 34.3931 5.81316 35.0191 5.48998C35.6451 5.1668 36.3489 5.02476 37.0513 5.07984C37.6395 5.02513 38.2318 5.12228 38.7716 5.36199C39.3115 5.6017 39.7808 5.97595 40.1346 6.44892C40.6566 7.34694 40.8971 8.38097 40.8249 9.41718V16.1591H40.8134Z" fill="#3A3A3A"/>
<path d="M44.3594 5.30908H42.415V16.1582H44.3594V5.30908Z" fill="#3A3A3A"/>
<path d="M43.4396 2.90504C43.1079 2.90204 42.7907 2.76895 42.5562 2.53442C42.3216 2.29989 42.1885 1.98267 42.1855 1.65101C42.1855 1.31842 42.3177 0.999447 42.5528 0.764271C42.788 0.529094 43.107 0.396973 43.4396 0.396973C43.7722 0.396973 44.0911 0.529094 44.3263 0.764271C44.5615 0.999447 44.6936 1.31842 44.6936 1.65101C44.7096 1.81967 44.6882 1.98979 44.6308 2.14921C44.5735 2.30863 44.4816 2.45341 44.3618 2.57321C44.242 2.69302 44.0972 2.78488 43.9378 2.84224C43.7784 2.8996 43.6082 2.92105 43.4396 2.90504V2.90504Z" fill="#3A3A3A"/>
<path d="M52.3518 6.79424H49.9473V16.0442H48.003V6.79424H45.9551V5.19506H48.003V1.7666H49.9473V5.19506H52.3518V6.79424Z" fill="#3A3A3A"/>
<path d="M55.7832 5.30908H53.8389V16.1582H55.7832V5.30908Z" fill="#3A3A3A"/>
<path d="M54.8634 2.90504C55.556 2.90504 56.1174 2.34359 56.1174 1.65101C56.1174 0.958423 55.556 0.396973 54.8634 0.396973C54.1708 0.396973 53.6094 0.958423 53.6094 1.65101C53.6094 2.34359 54.1708 2.90504 54.8634 2.90504Z" fill="#3A3A3A"/>
<path d="M65.8243 16.1582H57.2646V14.6741L63.4313 6.90826H57.5983V5.30908H65.8243V6.79321L59.5426 14.6741H65.8243V16.1582Z" fill="#3A3A3A"/>
<path d="M76.4576 10.8999C76.4576 7.70155 74.8584 5.14746 71.545 5.14746C68.5768 5.14746 66.4023 7.44844 66.4023 10.7503C66.4023 14.2939 68.4617 16.5028 71.545 16.5028C72.4872 16.5269 73.4197 16.309 74.2536 15.8699C75.0875 15.4308 75.7948 14.7852 76.3081 13.9947L74.939 12.9708C74.62 13.5355 74.1544 14.0035 73.5915 14.3255C73.0285 14.6474 72.389 14.8114 71.7406 14.8001C71.2649 14.8169 70.7911 14.732 70.3508 14.5513C69.9105 14.3705 69.5138 14.0979 69.1872 13.7516C68.8605 13.4054 68.6115 12.9935 68.4566 12.5434C68.3018 12.0933 68.2447 11.6154 68.2891 11.1415H76.3426L76.4576 10.8999ZM68.4617 9.59986C68.4947 8.76876 68.8536 7.98408 69.4608 7.41564C70.068 6.84721 70.8746 6.54074 71.7061 6.56256C73.3053 6.56256 74.3292 7.71305 74.5593 9.64587L68.4617 9.59986Z" fill="#3A3A3A"/>
<path d="M83.7648 6.90803C83.5347 6.90803 83.3046 6.79299 83.0745 6.79299C82.6213 6.81452 82.177 6.92734 81.7684 7.12469C81.3598 7.32204 80.9953 7.59985 80.6966 7.94148C80.398 8.2831 80.1714 8.68151 80.0304 9.11283C79.8894 9.54414 79.837 9.99947 79.8762 10.4515V16.204H77.9434V5.30885H79.8877V7.36823C80.1289 6.68566 80.5786 6.09621 81.1732 5.68328C81.7679 5.27035 82.4773 5.05484 83.2011 5.06725C83.4004 5.03624 83.6043 5.07701 83.7763 5.1823L83.7648 6.90803Z" fill="#3A3A3A"/>
</svg>

<svg width="84" height="17" fill="none" xmlns="http://www.w3.org/2000/svg"><path d="M11.455 16.158L7.003 2.904l-3.889 11.31h5.488v1.829H.376L5.979.51h2.278l5.488 15.532h-2.29v.115zm9.25-9.25c-.23 0-.46-.115-.691-.115a3.37 3.37 0 0 0-3.187 3.658v5.753h-1.944V5.309h1.944v2.06a3.452 3.452 0 0 1 3.314-2.302c.199-.03.403.01.575.115l-.012 1.726zm5.14 9.48c-3.197 0-5.142-2.174-5.142-5.752s2.175-5.752 5.143-5.752a4.66 4.66 0 0 1 4.602 2.968l-1.6.805a2.98 2.98 0 0 0-2.968-2.174c-1.944 0-3.198 1.484-3.198 4.107s1.369 4.107 3.198 4.107a3.371 3.371 0 0 0 3.199-1.944l1.484.805a4.855 4.855 0 0 1-4.717 2.83zm14.968-.229H38.87V9.877c0-2.404-.909-3.083-2.508-3.083a2.911 2.911 0 0 0-2.853 3.198v6.282h-1.945V.627h1.945V6.91a3.785 3.785 0 0 1 3.543-1.83 3.451 3.451 0 0 1 3.084 1.37c.522.898.762 1.932.69 2.968v6.742h-.012zM44.36 5.31h-1.944v10.85h1.944V5.308zm-.92-2.404a1.265 1.265 0 0 1-1.254-1.254 1.254 1.254 0 0 1 2.509 0 1.15 1.15 0 0 1-1.254 1.254zm8.913 3.89h-2.405v9.25h-1.944v-9.25h-2.048v-1.6h2.048V1.767h1.944v3.428h2.405v1.6zm3.431-1.486H53.84v10.85h1.944V5.308zm-.92-2.404a1.254 1.254 0 1 0 0-2.508 1.254 1.254 0 0 0 0 2.508zm10.961 13.253h-8.56v-1.484l6.167-7.766h-5.833V5.31h8.226v1.484l-6.281 7.881h6.281v1.484zM76.458 10.9c0-3.198-1.6-5.753-4.913-5.753-2.968 0-5.143 2.301-5.143 5.603 0 3.544 2.06 5.753 5.143 5.753a5.51 5.51 0 0 0 4.763-2.508L74.94 12.97a3.601 3.601 0 0 1-3.198 1.83 3.35 3.35 0 0 1-3.452-3.66h8.054l.115-.241zm-7.996-1.3a3.164 3.164 0 0 1 3.244-3.037c1.6 0 2.623 1.15 2.853 3.083L68.462 9.6zm15.303-2.692c-.23 0-.46-.115-.69-.115a3.371 3.371 0 0 0-3.199 3.658v5.753h-1.933V5.309h1.945v2.06A3.451 3.451 0 0 1 83.2 5.066c.2-.03.403.01.575.115l-.011 1.726z" fill="#3A3A3A"/></svg>
